Adwaita++-Dark/actions/22/account-types-savings.svg

<svg height="22" width="22" xmlns="http://www.w3.org/2000/svg">
  <g fill="#e6ddff">
    <path d="m10 3c-1.6568542 0-3 1.3431458-3 3 .0001698.1834609.017168.3665195.0507812.546875.6539761-.2164534 1.3432087-.3738287 2.0566407-.4609375.3945872-.0481787.7976754-.0708285 1.2050781-.0644531.900717.0140951 1.803898.1574873 2.648438.4257812.024174-.1479036.037231-.2974107.039062-.4472656 0-1.6568542-1.343146-3-3-3z" opacity=".3"/>
    <path d="m10.296875 7.0214844c-.3608756-.0056473-.7187043.0139481-1.0683594.0566406-2.6651.325404-4.9232644 1.7113212-5.8339844 3.583984-.2957098.608036-.3958312 1.046619-.3945312 1.714844.00181 1.03724.3607779 1.966515 1.0507812 2.826172l.9492188 3.796875h1.4375l.2792969-1.402344c.0163-.01629.3226306.04299.6816406.13086 1.75662.429923 4.0511065.449433 5.4667965.054687.131339-.03662.195684-.037248.28125-.048828l.416016 1.265625h1.4375l.449219-3.199219.222656-.138672c1.9892-1.244599 2.726484-1.844569 2.990234-2.433593.26571-.593394.400444-1.403283.308594-1.845704-.0757-.364497-.176032-.439453-.601562-.439453-.41305 0-1.02177-.135956-1.13086-.253906-.0463-.05007-.163277-.23781-.261719-.416015-.107659-.194882-.348545-.4891459-.603515-.7402349l-.423828-.4179687.357422-.7832032c.39676-.758734.490077-1.0904199.335937-1.203125-.14265-.104313-.475352-.08275-.976562.0625-.64585.1871601-1.006888.3964364-1.492188.8652344-.23338.22544-.436955.5210923-.453125.5351563-.0162.01406-.013761-.1499363.005859-.3632813l.035157-.3867187-.351563-.1582031c-.9279-.4148978-2.030654-.6451676-3.113281-.6621094zm5.130859 2.9824216c.143792-.0181308.299759.02791.419922.142578.318195.30364.106244.853516-.328125.853516-.141049 0-.219182-.0357-.349609-.160156-.189492-.180827-.218722-.365143-.09375-.595703.07551-.139339.207771-.222104.351562-.240235z"/>
  </g>
</svg>

<svg xmlns="http://www.w3.org/2000/svg" width="22" height="22" version="1.1">
 <defs>
  <style id="current-color-scheme" type="text/css">
   .ColorScheme-Text { color:#E6DDFF; } .ColorScheme-Highlight { color:#4285f4; }
  </style>
 </defs>
 <path style="fill:currentColor;opacity:0.3" class="ColorScheme-Text" d="M 10,3 C 8.3431458,3 7,4.3431458 7,6 7.0001698,6.1834609 7.017168,6.3665195 7.0507812,6.546875 7.7047573,6.3304216 8.3939899,6.1730463 9.1074219,6.0859375 9.5020091,6.0377588 9.9050973,6.015109 10.3125,6.0214844 11.213217,6.0355795 12.116398,6.1789717 12.960938,6.4472656 12.985112,6.299362 12.998169,6.1498549 13,6 13,4.3431458 11.656854,3 10,3 Z"/>
 <path style="fill:currentColor" class="ColorScheme-Text" d="M 10.296875 7.0214844 C 9.9359994 7.0158371 9.5781707 7.0354325 9.2285156 7.078125 C 6.5634156 7.403529 4.3052512 8.7894462 3.3945312 10.662109 C 3.0988214 11.270145 2.9987 11.708728 3 12.376953 C 3.00181 13.414193 3.3607779 14.343468 4.0507812 15.203125 L 5 19 L 6.4375 19 L 6.7167969 17.597656 C 6.7330969 17.581366 7.0394275 17.640646 7.3984375 17.728516 C 9.1550575 18.158439 11.449544 18.177949 12.865234 17.783203 C 12.996573 17.746583 13.060918 17.745955 13.146484 17.734375 L 13.5625 19 L 15 19 L 15.449219 15.800781 L 15.671875 15.662109 C 17.661075 14.41751 18.398359 13.81754 18.662109 13.228516 C 18.927819 12.635122 19.062553 11.825233 18.970703 11.382812 C 18.895003 11.018315 18.794671 10.943359 18.369141 10.943359 C 17.956091 10.943359 17.347371 10.807403 17.238281 10.689453 C 17.191981 10.639383 17.075004 10.451643 16.976562 10.273438 C 16.868903 10.078556 16.628017 9.7842921 16.373047 9.5332031 L 15.949219 9.1152344 L 16.306641 8.3320312 C 16.703401 7.5732972 16.796718 7.2416113 16.642578 7.1289062 C 16.499928 7.0245932 16.167226 7.0461562 15.666016 7.1914062 C 15.020166 7.3785663 14.659128 7.5878426 14.173828 8.0566406 C 13.940448 8.2820806 13.736873 8.5777329 13.720703 8.5917969 C 13.704503 8.6058569 13.706942 8.4418606 13.726562 8.2285156 L 13.761719 7.8417969 L 13.410156 7.6835938 C 12.482256 7.268696 11.379502 7.0384262 10.296875 7.0214844 z M 15.427734 10.003906 C 15.571526 9.9857752 15.727493 10.031816 15.847656 10.146484 C 16.165851 10.450124 15.9539 11 15.519531 11 C 15.378482 11 15.300349 10.9643 15.169922 10.839844 C 14.98043 10.659017 14.9512 10.474701 15.076172 10.244141 C 15.151682 10.104802 15.283943 10.022037 15.427734 10.003906 z"/>
</svg>
